X: 1061
T: A Theater Tune.
%R: air, waltz
B: Henry Playford "Apollo's Banquet", London 1687 (5th Edition)
F: https://archive.org/details/apollosbanquetco01rugg
Z: 2017 John Chambers <jc:trillian.mit.edu>
M: 3/4
L: 1/8
K: C
% - - - - - - - - - -
|:\
c2c2d2 | e2e2f2 | g6 | c2c2d2 |\
B3AG2 | A2B2c2 | d6 | G2A2B2 |\
c3BA2 | B>cA3G | G6 :|
|:\
g2(ga)(gf) | e2e4 | f2(fg)(fe) | d2d4 |\
B2B2c2 | d2d2(ef) | (ga)(gf)(ef) | e2e2f(e/f/) |\
g3f(ef) | (ed)d3c | c6 |]
% - - - - - - - - - -

%%sep 1 1 500
%%sep 1 1 500

